svgs/thin/space-station-moon-construction.svg

<svg xmlns="http://www.w3.org/2000/svg" viewBox="0 0 512 512"><!--! Font Awesome Pro 6.4.0 by @fontawesome - https://fontawesome.com License - https://fontawesome.com/license (Commercial License) Copyright 2023 Fonticons, Inc. --><path d="M256 16C123.5 16 16 123.5 16 256c0 12.4 .9 24.5 2.7 36.4C92.4 320.6 172.4 336 256 336s163.6-15.4 237.3-43.6c1.4-9.3 2.3-18.7 2.6-28.4H416c-4.4 0-8-3.6-8-8s3.6-8 8-8h88c4.4 0 8 3.6 8 8c0 14.8-1.3 29.2-3.7 43.3c-.4 2.5-2 4.7-4.3 5.8l-1.4 .7c-.2 .1-.5 .2-.7 .3C425.7 335.8 342.7 352 256 352c-82.1 0-160.8-14.6-233.7-41.2C47.1 416.9 142.3 496 256 496c82 0 154.5-41.2 197.8-104H400c-4.4 0-8-3.6-8-8s3.6-8 8-8h68.5c2.9 0 5.5 1.6 7 4.1s1.4 5.6-.1 8.1C430.5 462.3 349 512 256 512C114.6 512 0 397.4 0 256S114.6 0 256 0c78.4 0 148.7 35.3 195.6 90.8c2 2.4 2.5 5.7 1.1 8.5s-4.1 4.6-7.3 4.6H360c-4.4 0-8-3.6-8-8s3.6-8 8-8h67.4C383.8 43.6 323.1 16 256 16zm88 136c0-4.4 3.6-8 8-8h96c4.4 0 8 3.6 8 8s-3.6 8-8 8H352c-4.4 0-8-3.6-8-8zm0 48c0-4.4 3.6-8 8-8h96c4.4 0 8 3.6 8 8s-3.6 8-8 8H352c-4.4 0-8-3.6-8-8zM192 224a64 64 0 1 0 0-128 64 64 0 1 0 0 128zm0-144a80 80 0 1 1 0 160 80 80 0 1 1 0-160zm0 64a16 16 0 1 1 0 32 16 16 0 1 1 0-32z"/></svg>

<svg xmlns="http://www.w3.org/2000/svg" viewBox="0 0 512 512"><!--! Font Awesome Pro 6.3.0 by @fontawesome - https://fontawesome.com License - https://fontawesome.com/license (Commercial License) Copyright 2023 Fonticons, Inc. --><path d="M255.1 16C123.5 16 15.1 123.5 15.1 256C15.1 268.4 16.93 280.5 18.74 292.4C92.41 320.6 172.4 336 255.1 336C339.6 336 419.6 320.6 493.3 292.4C494.7 283.1 495.6 273.6 495.9 264H416C411.6 264 408 260.4 408 256C408 251.6 411.6 248 416 248H504C508.4 248 512 251.6 512 256C512 270.8 510.7 285.2 508.3 299.3C507.9 301.8 506.3 303.1 504.1 305.1L502.7 305.8C502.4 305.1 502.2 306.1 501.1 306.1C425.7 335.8 342.7 352 255.1 352C173.9 352 95.17 337.4 22.28 310.8C47.05 416.9 142.3 496 255.1 496C338 496 410.5 454.8 453.8 392H400C395.6 392 392 388.4 392 384C392 379.6 395.6 376 400 376H468.5C471.3 376 474 377.6 475.4 380.1C476.8 382.6 476.8 385.7 475.3 388.1C430.5 462.3 349 512 256 512C114.6 512 0 397.4 0 256C0 114.6 114.6 0 256 0C334.4 0 404.7 35.29 451.6 90.84C453.6 93.21 454.1 96.54 452.7 99.37C451.4 102.2 448.6 104 445.5 104H360C355.6 104 352 100.4 352 96C352 91.58 355.6 88 360 88H427.4C383.8 43.56 323.1 16 255.1 16H255.1zM344 152C344 147.6 347.6 144 352 144H448C452.4 144 456 147.6 456 152C456 156.4 452.4 160 448 160H352C347.6 160 344 156.4 344 152zM344 200C344 195.6 347.6 192 352 192H448C452.4 192 456 195.6 456 200C456 204.4 452.4 208 448 208H352C347.6 208 344 204.4 344 200zM175.1 160C175.1 151.2 183.2 144 191.1 144C200.8 144 207.1 151.2 207.1 160C207.1 168.8 200.8 176 191.1 176C183.2 176 175.1 168.8 175.1 160zM111.1 160C111.1 115.8 147.8 80 191.1 80C236.2 80 272 115.8 272 160C272 204.2 236.2 240 191.1 240C147.8 240 111.1 204.2 111.1 160zM191.1 224C227.3 224 255.1 195.3 255.1 160C255.1 124.7 227.3 96 191.1 96C156.7 96 127.1 124.7 127.1 160C127.1 195.3 156.7 224 191.1 224z"/></svg>
